X:1
T:Der Bardengeist
T:Ludwig van Beethoven (1770-1827) Arr. for violin and piano by Henry Miller (b. 2003) 
T:WoO 142 (1813)
T:Set by Arthur Stammet © 2017 - All rights reserved
T:Set by Arthur Stammet © 2017 - All rights reserved
Z:Set by Arthur Stammet © 2017 - All rights reserved
%%score 1 { ( 2 4 ) | ( 3 5 ) }
L:1/8
Q:3/8=80
M:6/8
K:G
V:1 treble nm="Violin" snm="Vln."
V:2 treble nm="Piano"
V:4 treble 
V:3 bass 
V:5 bass 
V:1
!p!"^Andante" E G2 B | z2 g [B,Ge]2 [^DBf] |: [G,EBg]2 g e2 f | g2 a [Geb]2 g | [CGe]2 g [CAf]2 e | %5
 [B,F^d]2 e f z f | [G,EBg]2 g [G,DBg]2 g | g2 (=f/e/) e2 e | =f2 f f2 e | e2 ^d ((e^f)) g | %10
 a2 a g2 f | e2 B c2 A | F2 A G2 F | E2 z4 | z6 :| z2!<(! ([B,G] [B,E]2!<)!!>(! [A,^DF]!>)! | %16
 [EG]2) z [G,EBg]2 z | [B,Ge]2 z [B,F^db]2 z | !fermata![EBge']2 |] %19
V:2
 z z3 | z2 [Gg]!<(! e2!<)!!>(! [^df]!>)! |: [eg]2 [B,G] [B,E]2 [A,^DF] | [G,EG]3 E3 | E3 F2 E | %5
 ^D2 [G,B,E] [DF] z [DF] | [G,EG]3 [G,=D=FG]3 | [EG]2 [D=F]/[CE]/ [CE]2 [G,CE] | %8
 [C=F]3- [CF]2 [CE] | E2"_cresc." ^D [G,B,E][A,DF]!>(![B,EG]!>)! | [A,EA]2 [A,EA] [B,EG]2 [A,^DF] | %11
 [G,E]2 B (c2 A | F2) ([EA] [EG]2 [A,^DF]) | [G,E]2 z z3 | z2 [Gg] [Be]2 [^df] :| %15
 [eg]2!<(! ([B,G] [B,E]2!<)!!>(! [A,^DF]!>)! | [G,EG]2) z [B,EG]2 z | [G,B,E]2 z [A,^DF]2 z | %18
 !fermata![G,E]2 |] %19
V:3
!p!!ped! E,, G,,2 B,, | E,G,B,/E/ x2 x |: z2!ped-up! [E,,E,] [G,,G,]2 [F,,F,] | %3
 [E,,E,]3 [G,,,G,,]3 | [C,,C,]3 [F,C]3 | [B,,,B,,]3 [B,,,B,,]3 | [B,,,B,,]3 [B,,,B,,]3 | %7
 [C,,C,]3- [C,,C,]2 [C,,C,] | x4 x [A,,,A,,] | [^F,B,]3 G,,F,,E,,/=D,,/ | C,,2!p! C, B,,2 B,, | %11
 E,2 z!ped! !>![A,C]3- |!p! [A,C]2!ped-up! C B,2 B,, | E,2!ped! (E,, G,,2 B,, | E,G,B,/E/) x2 x :| %15
 z2!ped-up! [E,,E,] [G,,G,]2 [F,,F,] | E,2 z!pp!!ped! [B,,,B,,]2 z!ped-up! | %17
!ped! [B,,,B,,]2 z!ped-up!!ped! [B,,,B,,]2 z!ped-up! | !fermata![E,,,E,,]2 |] %19
V:4
 x4 | x2 z [GB]2 [FA] |: [EG]2 x4 | x3[I:staff +1] [E,G,]3 | [E,G,]3 x3 | %5
 [F,B,]2[I:staff -1] x x3 | x6 | G,3- G,2 x |[I:staff +1] =F,3- F,2[I:staff -1] x | x6 | x6 | %11
 x2 x [^D-F]3 | D2 x4 | x6 | x2 x G2 [FA] :| [EG]2 x4 | x6 | x6 | x2 |] %19
V:5
 x4 | x6 |: x6 | x6 | x3 [A,,,A,,]3 | x6 | x6 | x6 | [A,,,A,,]3- [A,,,A,,]2 x | [A,,,A,,]3 x3 | %10
 x6 | x6 | x6 | x6 | x6 :| x6 | x6 | x6 | x2 |] %19

